theme/essential/pix_core/e/text_highlight_picker.svg

<!DOCTYPE svg PUBLIC "-//W3C//DTD SVG 1.1//EN" "http://www.w3.org/Graphics/SVG/1.1/DTD/svg11.dtd" [
	<!ENTITY ns_flows "http://ns.adobe.com/Flows/1.0/">
]><svg xmlns="http://www.w3.org/2000/svg" width="16" height="16" viewBox="0 0 16 16" preserveAspectRatio="xMinYMid meet" overflow="visible"><path d="M5.4 14.5l-.9 1.5h-4.5v-.1l1.9-3.3 3.5 1.9zm10.6-14.5h-.3l-4.5 10.3-8.5-4.8 4-5.5h-1.2l-4.2 5.8.3.2c.4 1 1.2 3.5.2 5.3l4.8 2.8c1.1-1.9 3.6-2.4 4.7-2.5l.4.2 4.4-10v-1.8z" fill="#999"/></svg>

<?xml version="1.0" encoding="utf-8"?>
<!-- Generator: Adobe Illustrator 15.1.0, SVG Export Plug-In  -->
<!DOCTYPE svg PUBLIC "-//W3C//DTD SVG 1.1//EN" "http://www.w3.org/Graphics/SVG/1.1/DTD/svg11.dtd" [
	<!ENTITY ns_flows "http://ns.adobe.com/Flows/1.0/">
]>
<svg version="1.1"
	 xmlns="http://www.w3.org/2000/svg" xmlns:xlink="http://www.w3.org/1999/xlink" xmlns:a="http://ns.adobe.com/AdobeSVGViewerExtensions/3.0/"
	 x="0px" y="0px" width="16px" height="16px" viewBox="0 0 16 16" style="overflow:visible;enable-background:new 0 0 16 16;"
	 xml:space="preserve" preserveAspectRatio="xMinYMid meet">
<defs>
</defs>
<path style="fill:#29a1c4;" d="M5.4,14.5L4.5,16H0v-0.1l1.9-3.3L5.4,14.5z M16,0h-0.3l-4.5,10.3L2.7,5.5l4-5.5H5.5L1.3,5.8L1.6,6
	c0.4,1,1.2,3.5,0.2,5.3l4.8,2.8c1.1-1.9,3.6-2.4,4.7-2.5l0.4,0.2l4.4-10V0z"/>
</svg>
